X:1
T:37. Recitative
T:Thy hand, Belinda
%%score 1 2 { ( 3 4 ) 5 }
L:1/8
Q:1/4=80
M:4/4
K:Bb
V:1 treble nm="Dido"
V:2 bass nm="Vcl"
V:3 treble nm="Cembalo, Harpsichord"
V:4 treble 
V:5 bass nm="Cembalo,  "
V:1
 z c c =B c3 c | c B3- B/A/B/G/ _A3/2 B/ | _A3 A z2 A A | _A G2 G z2 G F | G4 z2 G G | %5
w: Thy hand, Be- lin- da;|dark- * * * * * * ness|shades me; On thy|bo- * som let me|rest; More I|
 GF z F F2 P=E3/2 F/ | =E E z2 _E3 E | D3 ^F FG G<C | D8 |] %9
w: would, _ but Death _ in-|vades me; Death is|now a wel- * come _|guest.|
V:2
 C,8- | C,8 | F,,8 | G,,4 _A,,4 | G,,4 G,,4 | G,,4 G,,4 | C,8 | D,4 E,4 | D,8 |] %9
V:3
 [CE]2 [DF]2 [EG][DF] [EG]2- | [EG][DF][C=E][DF] [EG]4 | [F_A]2 [EG][FA] [DF][CE][=B,D][CE] | %3
 E3 G- GGEF | G4 z E2 E- | E D2 D [=B,D]4 | z2 DC A,4 | ^F,A, D2 DD C2 | [^F,D]8 |] %9
V:4
 x8 | x8 | x8 | =B,4 C4- | CC=B,A, _B,4- | B,B,A,B, x4 | z G,3 G,4 | ^F,2 B,C B,2 G,2 | x8 |] %9
V:5
 C,8- | C,8 | F,,8 | G,,4 _A,,4 | G,,4 G,,4 | G,,4 G,,4 | C,8 | D,4 E,4 | D,8 |] %9

